svg/relation_zero_or_many_to_one.svg

<svg xmlns="http://www.w3.org/2000/svg" viewBox="0 0 24 24"><path d="M19 15v-2h-2v2h-4V7H9.79a2.5 2.5 0 0 0-4.58 0H5L3 5H2v6h1l2-2h.21a2.5 2.5 0 0 0 4.58 0H11v8h6v2h2v-2h3v-2M7.5 9a1 1 0 1 1 1-1 1 1 0 0 1-1 1"/></svg>

<?xml version="1.0" encoding="UTF-8"?><!DOCTYPE svg PUBLIC "-//W3C//DTD SVG 1.1//EN" "http://www.w3.org/Graphics/SVG/1.1/DTD/svg11.dtd"><svg xmlns="http://www.w3.org/2000/svg" xmlns:xlink="http://www.w3.org/1999/xlink" version="1.1" id="mdi-relation-zero-or-many-to-one" width="24" height="24" viewBox="0 0 24 24"><path d="M19 15V13H17V15H13V7H9.79A2.5 2.5 0 0 0 5.21 7H5L3 5H2V11H3L5 9H5.21A2.5 2.5 0 0 0 9.79 9H11V17H17V19H19V17H22V15M7.5 9A1 1 0 1 1 8.5 8A1 1 0 0 1 7.5 9Z" /></svg>
